svgs/regular/joystick.svg

<svg xmlns="http://www.w3.org/2000/svg" viewBox="0 0 448 512"><!-- Font Awesome Pro 6.0.0-alpha2 by @fontawesome - https://fontawesome.com License - https://fontawesome.com/license (Commercial License) --><path d="M384 352.039H248V221.32C314.447 206.756 355.084 135.459 327.025 67.332C314.895 37.877 289.578 14.859 259.146 5.42C187.768 -16.719 120.127 31.754 112.625 99.85C106.5 156.711 144.125 209.074 200 221.32V352.039H128C128 334.369 113.674 320.047 96 320.047S64 334.369 64 352.039C28.801 352.039 0 380.832 0 416.023V448.016C0 483.207 28.801 512 64 512H384C419.199 512 448 483.207 448 448.016V416.023C448 380.832 419.199 352.039 384 352.039ZM160 112.098C160 76.73 188.625 48.113 224 48.113S288 76.73 288 112.098C288 147.463 259.375 176.082 224 176.082S160 147.463 160 112.098ZM400 448.016C400 456.85 392.836 464.012 384 464.012H64C55.164 464.012 48 456.85 48 448.016V416.023C48 407.189 55.164 400.027 64 400.027H384C392.836 400.027 400 407.189 400 416.023V448.016Z"/></svg>

<svg xmlns="http://www.w3.org/2000/svg" viewBox="0 0 448 512"><!--! Font Awesome Pro 6.3.0 by @fontawesome - https://fontawesome.com License - https://fontawesome.com/license (Commercial License) Copyright 2023 Fonticons, Inc. --><path d="M384 352h-136V221.3c51.88-11.37 88.01-57.3 88.01-109.3c0-37.77-25.15-111.1-112-111.1c-42.57 0-112 33.1-112 111.1c0 52.03 36.12 97.96 88.01 109.3v130.7L128 352c0-17.67-14.33-31.97-32-31.97s-32 14.3-32 31.97c-35.2 0-64 28.82-64 64.01v31.99C0 483.2 28.8 512 64 512h320c35.2 0 64-28.79 64-63.98v-31.99C448 380.8 419.2 352 384 352zM160 112.1C160 76.73 188.6 48.11 224 48.11s64 28.62 64 63.98c0 35.37-28.62 63.98-64 63.98S160 147.5 160 112.1zM400 448c0 8.834-7.164 15.1-16 15.1H64c-8.836 0-16-7.162-16-15.1v-31.99c0-8.834 7.164-15.1 16-15.1h320c8.836 0 16 7.162 16 15.1V448z"/></svg>
